X: 1805
T: Archie MacNab
R: jig
M: 6/8
K: Bminor
ce|fBB dBc|fef Aaf|ece AAA|cee ecA|
fBB dBc|fef Aaf|ece Ace|fBB B:|
ce|fBB a2e|fBB BBB|cAA aga|ecA Ace|
fBB a2e|fBB BBB|cAA aga|fBB B:|
ce|fBB BBB|cBB BBB|Ace aga|ecA Ace|
fBB BBB|cBB BBB|Ace aga|fBB B:|
ce|f3 a2 e|fBB Bcd|c3 e2 B|cAA Ace|
f3 a2 e|fBB Bcd|cAA aga|fBB B:|

